icons/lines/xrp--xrp-.svg

<svg xmlns="http://www.w3.org/2000/svg" width="24" height="24" viewBox="0 0 24 24" fill="none" stroke="currentColor" stroke-width="2" stroke-linecap="round" stroke-linejoin="round" >
  <path d="M5.49994 2H4.09994C3.09994 2 2.59994 3.1 3.29994 3.8L8.99994 9.5C10.5999 11.1 13.2999 11.1 14.8999 9.5L20.5999 3.8C21.3999 3.1 20.8999 2 19.8999 2H18.4999C17.6999 2 16.8999 2.3 16.2999 2.9L12.6999 6.5C12.2999 6.9 11.5999 6.9 11.1999 6.5L7.69994 2.9C7.09994 2.3 6.29994 2 5.49994 2Z" stroke-miterlimit="10"/>
  <path d="M5.50004 22H4.10004C3.20004 22 2.70004 20.9 3.40004 20.2L9.00004 14.5C10.6 12.9 13.3 12.9 14.9 14.5L20.6 20.2C21.3 20.9 20.8 22 19.9 22H18.5C17.7 22 16.9 21.7 16.3 21.1L12.7 17.5C12.3 17.1 11.6 17.1 11.2 17.5L7.60004 21.1C7.10004 21.6 6.30004 22 5.50004 22Z" stroke-miterlimit="10"/>
  </svg>

<svg xmlns="http://www.w3.org/2000/svg" width="24" height="24" viewBox="0 0 24 24" fill="none" stroke="currentColor" stroke-width="2" stroke-linecap="round" stroke-linejoin="round">
  <path d="M4.1 22c-.9 0-1.4-1.1-.7-1.8L9 14.5c1.6-1.6 4.3-1.6 5.9 0l5.7 5.7a1 1 0 0 1-.7 1.8h-1.4a3.1 3.1 0 0 1-2.2-.9l-3.6-3.6a1 1 0 0 0-1.5 0l-3.6 3.6c-.5.5-1.3.9-2.1.9z" />
  <path d="M4.1 2c-1 0-1.5 1.1-.8 1.8L9 9.5c1.6 1.6 4.3 1.6 5.9 0l5.7-5.7c.8-.7.3-1.8-.7-1.8h-1.4a3.1 3.1 0 0 0-2.2.9l-3.6 3.6a1 1 0 0 1-1.5 0L7.7 2.9A3.1 3.1 0 0 0 5.5 2z" />
</svg>
